logos/atom.svg

<svg width="210" height="44" viewBox="0 0 210 44" fill="none" xmlns="http://www.w3.org/2000/svg">
<rect width="208" height="40" fill="black" fill-opacity="0" transform="translate(2 2)"/>
<rect width="208" height="40" fill="black" fill-opacity="0" transform="translate(2 2)"/>
<path d="M37.4283 11.2417C38.1707 7.47036 37.7555 4.60814 36.0007 3.47071C35.4158 3.09157 34.7146 2.92566 33.9253 2.95557C29.6634 3.11706 22.7867 8.97425 17.1682 17.6098C10.5092 27.8446 8.14276 38.1018 11.8863 40.5283C13.6632 41.6801 16.4949 40.8636 19.6938 38.5883" stroke="#66595C" stroke-width="2.38314" stroke-linecap="round"/>
<path d="M41.1403 28.1905C44.3115 26.9521 46.2615 25.2571 46.3628 23.3104C46.5972 18.8082 36.8639 14.6401 24.6132 13.9938C23.4647 13.9332 22.3353 13.9013 21.2306 13.9051C10.552 13.9413 2.21656 16.8901 2.00414 20.9702C1.90299 22.913 3.66142 24.797 6.67579 26.3605" stroke="#66595C" stroke-width="2.38314" stroke-linecap="round"/>
<path d="M20.9162 4.6368C18.7467 2.84874 16.712 1.88854 15.0772 2.01033C14.6419 2.04275 14.2394 2.14931 13.8653 2.33864C9.87522 4.35817 11.1499 14.8029 16.7187 25.6596C22.2876 36.5162 30.0363 43.6787 34.0264 41.6592C37.8637 39.717 36.828 29.9844 31.79 19.5858" stroke="#66595C" stroke-width="2.38314" stroke-linecap="round"/>
<path d="M26.8073 22.2382C26.8073 23.6846 25.6325 24.8572 24.1834 24.8572C22.7343 24.8572 21.5596 23.6846 21.5596 22.2382C21.5596 20.7917 22.7343 19.6191 24.1834 19.6191C25.6325 19.6191 26.8073 20.7917 26.8073 22.2382Z" fill="#66595C"/>
<path fill-rule="evenodd" clip-rule="evenodd" d="M62.1117 37.1913C62.1117 36.919 62.1542 36.6014 62.3333 36.2383L74.9158 8.05557C75.359 7.05715 76.0237 6.46718 77.1317 6.46718H77.309C78.3726 6.46718 79.0817 7.05715 79.4805 8.05557L92.0667 36.1929C92.1996 36.5106 92.2883 36.8283 92.2883 37.1006C92.2883 38.053 91.5343 38.8251 90.6042 38.8251C89.7622 38.8251 89.1861 38.2351 88.8758 37.509L85.6406 30.2024H68.6246L65.3894 37.5998C65.0792 38.3713 64.503 38.8251 63.7053 38.8251C63.2816 38.8271 62.8746 38.6557 62.575 38.3488C62.2754 38.042 62.1079 37.6252 62.1099 37.1913H62.1117ZM69.9984 26.9348H84.2687L77.1335 10.6878L69.9984 26.9348ZM110.17 37.0098C110.17 38.0082 110.968 38.8251 111.943 38.8251C112.918 38.8251 113.716 38.0082 113.716 37.0098V10.1432H122.712C123.599 10.1432 124.352 9.41706 124.352 8.5094C124.338 7.58797 123.612 6.84443 122.712 6.83024H101.174C100.274 6.84443 99.548 7.58797 99.5341 8.5094C99.5341 9.41706 100.288 10.1432 101.174 10.1432H110.17V37.0098ZM149.764 39.1428C140.325 39.1428 133.987 31.5639 133.987 22.805V22.7142C133.987 13.9553 140.413 6.28564 149.853 6.28564C159.293 6.28564 165.63 13.8646 165.63 22.6234V22.7142C165.63 31.4731 159.204 39.1428 149.764 39.1428ZM149.853 35.8298C156.944 35.8298 161.996 30.0208 161.996 22.805V22.7142C161.996 15.4984 156.855 9.59859 149.764 9.59859C142.673 9.59859 137.621 15.4076 137.621 22.6234V22.7142C137.621 29.9301 142.762 35.8298 149.853 35.8298ZM180.307 37.0552C180.307 38.0536 181.06 38.8251 181.991 38.8251C182.452 38.8323 182.895 38.6482 183.221 38.3147C183.547 37.9812 183.727 37.5268 183.719 37.0552V13.3654L193.602 28.2509C194.001 28.8409 194.489 29.1586 195.109 29.1586C195.73 29.1586 196.173 28.8409 196.572 28.2509L206.499 13.32V37.0098C206.499 37.9628 207.296 38.8251 208.271 38.8251C209.202 38.8251 210 38.0082 210 37.0098V8.46402C209.983 7.49371 209.219 6.71125 208.271 6.69409H207.873C207.163 6.69409 206.587 7.05715 206.233 7.64713L195.153 24.7111L184.074 7.64713C183.719 7.10253 183.188 6.69409 182.434 6.69409H182.035C181.088 6.71125 180.324 7.49371 180.307 8.46402V37.0552Z" fill="#66595C"/>
</svg>

<svg width="210" height="44" fill="none" xmlns="http://www.w3.org/2000/svg"><path fill="none" d="M2 2h208v40H2z"/><path fill="none" d="M2 2h208v40H2z"/><path d="M37.428 11.242c.743-3.772.328-6.634-1.427-7.771-.585-.38-1.286-.545-2.076-.515-4.262.161-11.138 6.018-16.757 14.654-6.659 10.235-9.025 20.492-5.282 22.918 1.777 1.152 4.609.336 7.808-1.94" stroke="#66595C" stroke-width="2.383" stroke-linecap="round"/><path d="M41.14 28.19c3.172-1.238 5.121-2.933 5.223-4.88.234-4.502-9.5-8.67-21.75-9.316a60.367 60.367 0 0 0-3.382-.089c-10.679.036-19.014 2.985-19.227 7.065-.101 1.943 1.657 3.827 4.672 5.39" stroke="#66595C" stroke-width="2.383" stroke-linecap="round"/><path d="M20.916 4.637c-2.17-1.788-4.204-2.748-5.839-2.627a3.17 3.17 0 0 0-1.212.329c-3.99 2.02-2.715 12.464 2.854 23.32 5.569 10.857 13.317 18.02 17.307 16 3.838-1.942 2.802-11.675-2.236-22.073" stroke="#66595C" stroke-width="2.383" stroke-linecap="round"/><path d="M26.807 22.238a2.622 2.622 0 0 1-2.624 2.62 2.621 2.621 0 0 1-2.623-2.62 2.621 2.621 0 0 1 2.623-2.619 2.622 2.622 0 0 1 2.624 2.62z" fill="#66595C"/><path fill-rule="evenodd" clip-rule="evenodd" d="M62.112 37.191c0-.272.042-.59.221-.953L74.916 8.056c.443-.999 1.108-1.589 2.216-1.589h.177c1.064 0 1.773.59 2.172 1.589l12.586 28.137c.133.318.221.635.221.908 0 .952-.754 1.724-1.684 1.724-.842 0-1.418-.59-1.728-1.316l-3.235-7.307H68.625L65.389 37.6c-.31.771-.886 1.225-1.684 1.225-.423.002-.83-.17-1.13-.476a1.646 1.646 0 0 1-.465-1.158h.002zm7.886-10.256h14.27l-7.135-16.247-7.135 16.247zM110.17 37.01c0 .998.798 1.815 1.773 1.815.975 0 1.773-.817 1.773-1.815V10.143h8.996c.887 0 1.64-.726 1.64-1.634-.014-.921-.74-1.665-1.64-1.679h-21.538c-.9.014-1.626.758-1.64 1.68 0 .907.754 1.633 1.64 1.633h8.996V37.01zm39.594 2.133c-9.439 0-15.777-7.58-15.777-16.338v-.09c0-8.76 6.426-16.43 15.866-16.43s15.777 7.58 15.777 16.338v.091c0 8.76-6.426 16.429-15.866 16.429zm.089-3.313c7.091 0 12.143-5.81 12.143-13.025v-.09c0-7.217-5.141-13.116-12.232-13.116-7.091 0-12.143 5.809-12.143 13.024v.091c0 7.216 5.141 13.116 12.232 13.116zm30.454 1.225c0 .999.753 1.77 1.684 1.77.461.007.904-.177 1.23-.51a1.76 1.76 0 0 0 .498-1.26v-23.69l9.883 14.886c.399.59.887.908 1.507.908.621 0 1.064-.318 1.463-.908l9.927-14.931v23.69c0 .953.797 1.815 1.772 1.815.931 0 1.729-.817 1.729-1.815V8.464c-.017-.97-.781-1.753-1.729-1.77h-.398c-.71 0-1.286.363-1.64.953l-11.08 17.064-11.079-17.064c-.355-.544-.886-.953-1.64-.953h-.399c-.947.017-1.711.8-1.728 1.77v28.591z" fill="#66595C"/></svg>
